X: 132082
T: Moon Man (The)
C: Joe Liddy
Z: BB
S: "The Leitrim Fiddler" (Dublin 1981)
L: 1/8
M: 6/8
R: jig
Q: 1/4 = 170
K: Ador
d | cAB cde | dcA GEG | AGA cde | ged e2d |
cAB cde | dcA GEG | AGA ged | cAG A2 :|
d | eaa ged | cAB cde | ged efg | age d2d |
eaa ged | cAG cde | age ded | cAG A2 :|
